pk/file-focus-one.svg

<svg viewBox="0 0 48 48" fill="none" xmlns="http://www.w3.org/2000/svg" height="1em" width="1em">
  <path d="M40 23V14L31 4H10C8.89543 4 8 4.89543 8 6V42C8 43.1046 8.89543 44 10 44H22" stroke="black" stroke-width="4" stroke-linecap="round" stroke-linejoin="round"/>
  <path d="M34 27L36.5234 32.5269L42.5595 33.2188L38.0829 37.3266L39.2901 43.2812L34 40.293L28.7099 43.2812L29.9171 37.3266L25.4405 33.2188L31.4766 32.5269L34 27Z" fill="#2F88FF" stroke="black" stroke-width="4" stroke-linecap="round" stroke-linejoin="round"/>
  <path d="M30 4V14H40" stroke="black" stroke-width="4" stroke-linecap="round" stroke-linejoin="round"/>
</svg>

<svg viewBox="0 0 48 48" fill="none" xmlns="http://www.w3.org/2000/svg" height="1em" width="1em">
  <path d="M40 23v-9L31 4H10a2 2 0 0 0-2 2v36a2 2 0 0 0 2 2h12" stroke="#000" stroke-width="4" stroke-linecap="round" stroke-linejoin="round"/>
  <path d="m34 27 2.523 5.527 6.036.692-4.476 4.108 1.207 5.954L34 40.293l-5.29 2.988 1.207-5.954-4.477-4.108 6.037-.692L34 27Z" fill="#2F88FF" stroke="#000" stroke-width="4" stroke-linecap="round" stroke-linejoin="round"/>
  <path d="M30 4v10h10" stroke="#000" stroke-width="4" stroke-linecap="round" stroke-linejoin="round"/>
</svg>
